X: 40009
T: Three Merry Sisters Of Fate, The
R: reel
M: 4/4
K: Bdorian
|defd efde|fB ~B2 fBce|defd efdf|eA ~A2 eAce|
defd efde|fB ~B2 fBce|defd efga|eA ~A2 eAce|
a2 ga faea|fB ~B2 fBce|a2 ga faed|cA ~A2 eAce|
a2 ga faea|fB ~B2 fBce|a2 ga faed|(3Bcd ef =gece:|

